images/cmc.svg

<svg width="17" height="12" viewBox="0 0 17 12" fill="none" xmlns="http://www.w3.org/2000/svg">
<path d="M15.1309 0H2.15977C1.33445 0 0.663086 0.628107 0.663086 1.40026V9.80173C0.663086 10.5739 1.33445 11.202 2.15977 11.202H15.1309C15.9562 11.202 16.6276 10.5739 16.6276 9.80173V1.40026C16.6276 0.628107 15.9562 0 15.1309 0ZM15.1309 0.933493C15.1987 0.933493 15.2631 0.94665 15.3221 0.969628L8.64532 6.38361L1.96852 0.969628C2.02747 0.946681 2.09195 0.933493 2.15973 0.933493H15.1309ZM15.1309 10.2685H2.15977C1.8845 10.2685 1.66086 10.0593 1.66086 9.80169V1.95587L8.31841 7.35402C8.41245 7.43013 8.52889 7.46798 8.64532 7.46798C8.76176 7.46798 8.8782 7.43016 8.97224 7.35402L15.6298 1.95587V9.80173C15.6298 10.0593 15.4061 10.2685 15.1309 10.2685Z" fill="#757575"/>
</svg>

<svg width="17" height="12" fill="none" xmlns="http://www.w3.org/2000/svg"><path d="M15.13 0H2.16C1.33 0 .66.63.66 1.4v8.4c0 .77.67 1.4 1.5 1.4h12.97c.83 0 1.5-.63 1.5-1.4V1.4c0-.77-.67-1.4-1.5-1.4zm0 .93c.07 0 .13.02.2.04L8.64 6.38 1.97.97a.53.53 0 01.19-.04h12.97zm0 9.34H2.16c-.28 0-.5-.21-.5-.47V1.96l6.66 5.4c.1.07.2.1.33.1.11 0 .23-.03.32-.1l6.66-5.4V9.8c0 .26-.22.47-.5.47z" fill="#757575"/></svg>
